src/images/bg-color/bg-top-mobile.svg

<svg xmlns="http://www.w3.org/2000/svg" fill="none" viewBox="0 0 320 420" preserveAspectRatio="none" x="0" y="0">
<path fill="#FEF3E4" d="M12.8728 447.869c0 5.753-7.91695 12.867-12.8728 12.631V0h319.944v84.4139c.125 50.3981 0 349.0741 0 358.2031 0 5.721-8.725 3.312-15.805-5.895-7.08-9.208 6.018-38.6 7.08-47.1 1.061-8.499-2.124-26.205-35.045-47.807-32.921-21.602-81.064-2.479-106.551 10.27-25.487 12.748-47.152-4.958-81.8428-15.582-34.6909-10.624-47.4345 6.375-52.0364 15.582-4.6019 9.207-4.5306 33.996-14.4423 37.537-9.9117 3.542-13.80559 13.103-11.32767 26.914 2.47797 13.811 2.89897 23.896 2.89897 31.333Z"/></svg>

<svg width="320" height="461" viewBox="0 0 320 461" fill="none" xmlns="http://www.w3.org/2000/svg">
<path d="M12.8728 447.869C12.8728 453.622 4.95585 460.736 0 460.5V0H319.944V84.4139C320.069 134.812 319.944 433.488 319.944 442.617C319.944 448.338 311.219 445.929 304.139 436.722C297.059 427.514 310.157 398.122 311.219 389.622C312.28 381.123 309.095 363.417 276.174 341.815C243.253 320.213 195.11 339.336 169.623 352.085C144.136 364.833 122.471 347.127 87.7802 336.503C53.0893 325.879 40.3457 342.878 35.7438 352.085C31.1419 361.292 31.2132 386.081 21.3015 389.622C11.3898 393.164 7.49591 402.725 9.97383 416.536C12.4518 430.347 12.8728 440.432 12.8728 447.869Z" fill="#FEF3E4"/>
</svg>
